xfadeIn 1 2 $ palindrome $ jux (rev) $ every 3 (rev . (off 0.125 (+ 4)) . (off 0.75 (+ 1))) $ n "[ [0 2]*4 , [10 4],[5 6]/4,[~ 6 7 8]/2]" # s "arpy" # release "<1.2 4>" # cutoff "400 100" # resonance ((range 0.4 0.1 sine)*(slow 4 saw))

d1 $ s "arpy"

  d1 $ n "[0 2 4 9]" # s "arpy"

  d1 $ n "[0 [4 5]]" # s "arpy"

  d1 $ n "[0 [4 5] [1 2 3 4 5 6] ]" # s "arpy"

  d1 $ n "[0 [2 0] , [1 2 3 4 5 6] ]" #  s "arpy"

  d1 $ n "[0 [2 3]/2 , [1 2 3 4 5 6] ]" #  s "arpy"

  d1 $ n "[0 2 3/2 ]" #  s "arpy"

  d1 $ n "[0 [2 3]/2 ]" #  s "arpy"

  d1 $ n "[0 2]" #  s "arpy"

  d1 $ n "<0 2>" #  s "arpy"

  d1 $ n "[0 2]" #  s "arpy"

 d1 $ n "[ [0 2]*4 , [10 4],[5 6]/4,[~ 6 7 8]/2]" # s "arpy"

 d1 $ every 3 (rev) $ n "[ [0 2]*4 , [10 4],[5 6]/4,[~ 6 7 8]/2]" # s "arpy"

 d1 $ every 3 (rev . (off 0.125 (+ 8))) $ n "[ [0 2]*4 , [10 4],[5 6]/4,[~ 6 7 8]/2]" # s "arpy"

 d1 $ off 0.25 (rev) $ n "[0 1 2]" # s "arpy"

 d1 $ off 0.125 (# crush 2) $ n "[0 1 2]" # s "arpy"

 d1 $ off 0.125 (rev) $ n "[0 1 2]" # s "arpy"

 d1 $ off 0.25 (rev. (# crush 2)) $ n "[0 1]" # s "arpy"

 d1 $ off 0.125 (# crush 2) $ n "[0 1 3 4]" # s "arpy"

 d1 $ off 0.125 (rev. (+ 4)) $ n "[0 1 2 3]" # s "arpy" --offset bug

d1 $ every 2 ( rev . (off 0.125 (+ 4))) $ n "[0 1 2 3]" # s "arpy"

 d1 $ off 0.75 (rev) $ n "[0 1 2]" # s "arpy"

hush
